static/img/mobile/switches.svg

<svg fill="none" height="260" viewBox="0 0 961 260" width="961" xmlns="http://www.w3.org/2000/svg"><path d="m0 0h961v260h-961z" fill="#f1f1f6"/><path d="m428.319 114v-9.994h1.162v8.941h4.41v1.053zm11.96 0-.225-1.066h-.055c-.374.469-.747.788-1.121.957-.369.164-.832.246-1.388.246-.743 0-1.326-.192-1.75-.575-.419-.382-.629-.927-.629-1.633 0-1.513 1.21-2.306 3.63-2.379l1.272-.041v-.465c0-.588-.128-1.021-.383-1.299-.251-.282-.654-.424-1.21-.424-.624 0-1.331.192-2.119.575l-.349-.869c.369-.2.773-.357 1.21-.471.442-.114.884-.171 1.326-.171.894 0 1.554.198 1.983.594.433.397.649 1.033.649 1.908v5.113zm-2.563-.8c.706 0 1.26-.193 1.661-.581.406-.387.608-.93.608-1.627v-.677l-1.134.048c-.903.032-1.554.173-1.955.424-.397.246-.595.631-.595 1.155 0 .411.123.723.369.937.251.214.599.321 1.046.321zm9.485-6.815c.985 0 1.748.337 2.29 1.011.547.67.821 1.621.821 2.851 0 1.231-.276 2.188-.828 2.871-.546.679-1.308 1.019-2.283 1.019-.487 0-.934-.089-1.34-.267-.401-.182-.738-.46-1.011-.834h-.082l-.24.964h-.813v-10.637h1.135v2.584c0 .579-.019 1.099-.055 1.559h.055c.528-.748 1.312-1.121 2.351-1.121zm-.164.95c-.775 0-1.333.223-1.675.67-.341.442-.512 1.189-.512 2.242s.175 1.807.526 2.263c.351.451.914.677 1.688.677.698 0 1.217-.253 1.559-.759.342-.511.513-1.242.513-2.195 0-.975-.171-1.702-.513-2.18-.342-.479-.87-.718-1.586-.718zm8.679 6.802c-1.108 0-1.983-.338-2.625-1.012-.638-.674-.957-1.611-.957-2.81 0-1.207.296-2.167.888-2.877.597-.711 1.397-1.067 2.4-1.067.939 0 1.682.31 2.228.93.547.615.821 1.428.821 2.44v.718h-5.161c.022.88.243 1.547.663 2.003.423.456 1.018.684 1.784.684.806 0 1.604-.169 2.392-.506v1.011c-.401.174-.781.297-1.141.37-.356.077-.786.116-1.292.116zm-.308-6.816c-.601 0-1.082.196-1.442.588-.356.392-.565.934-.629 1.627h3.917c0-.715-.16-1.262-.479-1.64-.319-.383-.774-.575-1.367-.575zm6.389 6.679h-1.135v-10.637h1.135z" fill="#252a2e"/><rect fill="#90939f" height="32" rx="16" transform="matrix(1 0 0 -1 471 125)" width="64"/><path d="m496.333 109c0 5.155-4.179 9.333-9.334 9.333-5.154 0-9.333-4.178-9.333-9.333s4.179-9.3334 9.333-9.3334c5.155 0 9.334 4.1784 9.334 9.3334z" fill="#fff"/><rect fill="#217cbb" height="32" rx="16" transform="matrix(1 0 0 -1 421 175)" width="64"/><path d="m482.218 159.014c.123 7.179-5.597 13.093-12.776 13.21s-13.098-5.608-13.22-12.786c-.123-7.179 5.598-13.093 12.776-13.21 7.179-.117 13.098 5.608 13.22 12.786z" fill="#fff"/><path d="m495.319 164v-9.994h1.162v8.941h4.41v1.053zm11.96 0-.225-1.066h-.055c-.374.469-.747.788-1.121.957-.369.164-.832.246-1.388.246-.743 0-1.326-.192-1.75-.575-.419-.382-.629-.927-.629-1.633 0-1.513 1.21-2.306 3.63-2.379l1.272-.041v-.465c0-.588-.128-1.021-.383-1.299-.251-.282-.654-.424-1.21-.424-.624 0-1.331.192-2.119.575l-.349-.869c.369-.2.773-.357 1.21-.471.442-.114.884-.171 1.326-.171.894 0 1.554.198 1.983.594.433.397.649 1.033.649 1.908v5.113zm-2.563-.8c.706 0 1.26-.193 1.661-.581.406-.387.608-.93.608-1.627v-.677l-1.134.048c-.903.032-1.554.173-1.955.424-.397.246-.595.631-.595 1.155 0 .411.123.723.369.937.251.214.599.321 1.046.321zm9.485-6.815c.985 0 1.748.337 2.29 1.011.547.67.821 1.621.821 2.851 0 1.231-.276 2.188-.828 2.871-.546.679-1.308 1.019-2.283 1.019-.487 0-.934-.089-1.34-.267-.401-.182-.738-.46-1.011-.834h-.082l-.24.964h-.813v-10.637h1.135v2.584c0 .579-.019 1.099-.055 1.559h.055c.528-.748 1.312-1.121 2.351-1.121zm-.164.95c-.775 0-1.333.223-1.675.67-.341.442-.512 1.189-.512 2.242s.175 1.807.526 2.263c.351.451.914.677 1.688.677.698 0 1.217-.253 1.559-.759.342-.511.513-1.242.513-2.195 0-.975-.171-1.702-.513-2.18-.342-.479-.87-.718-1.586-.718zm8.679 6.802c-1.108 0-1.983-.338-2.625-1.012-.638-.674-.957-1.611-.957-2.81 0-1.207.296-2.167.888-2.877.597-.711 1.397-1.067 2.4-1.067.939 0 1.682.31 2.228.93.547.615.821 1.428.821 2.44v.718h-5.161c.022.88.243 1.547.663 2.003.423.456 1.018.684 1.784.684.806 0 1.604-.169 2.392-.506v1.011c-.401.174-.781.297-1.141.37-.356.077-.786.116-1.292.116zm-.308-6.816c-.601 0-1.082.196-1.442.588-.356.392-.565.934-.629 1.627h3.917c0-.715-.16-1.262-.479-1.64-.319-.383-.774-.575-1.367-.575zm6.389 6.679h-1.135v-10.637h1.135z" fill="#252a2e"/></svg>

<svg width="961" height="260" viewBox="0 0 961 260" fill="none" xmlns="http://www.w3.org/2000/svg">
<rect width="961" height="260" fill="#F1F1F6"/>
<path d="M428.319 114V104.006H429.481V112.947H433.891V114H428.319ZM440.279 114L440.054 112.934H439.999C439.625 113.403 439.252 113.722 438.878 113.891C438.509 114.055 438.046 114.137 437.49 114.137C436.747 114.137 436.164 113.945 435.74 113.562C435.321 113.18 435.111 112.635 435.111 111.929C435.111 110.416 436.321 109.623 438.741 109.55L440.013 109.509V109.044C440.013 108.456 439.885 108.023 439.63 107.745C439.379 107.463 438.976 107.321 438.42 107.321C437.796 107.321 437.089 107.513 436.301 107.896L435.952 107.027C436.321 106.827 436.725 106.67 437.162 106.556C437.604 106.442 438.046 106.385 438.488 106.385C439.382 106.385 440.042 106.583 440.471 106.979C440.904 107.376 441.12 108.012 441.12 108.887V114H440.279ZM437.716 113.2C438.422 113.2 438.976 113.007 439.377 112.619C439.783 112.232 439.985 111.689 439.985 110.992V110.315L438.851 110.363C437.948 110.395 437.297 110.536 436.896 110.787C436.499 111.033 436.301 111.418 436.301 111.942C436.301 112.353 436.424 112.665 436.67 112.879C436.921 113.093 437.269 113.2 437.716 113.2ZM447.201 106.385C448.186 106.385 448.949 106.722 449.491 107.396C450.038 108.066 450.312 109.017 450.312 110.247C450.312 111.478 450.036 112.435 449.484 113.118C448.938 113.797 448.176 114.137 447.201 114.137C446.714 114.137 446.267 114.048 445.861 113.87C445.46 113.688 445.123 113.41 444.85 113.036H444.768L444.528 114H443.715V103.363H444.85V105.947C444.85 106.526 444.831 107.046 444.795 107.506H444.85C445.378 106.758 446.162 106.385 447.201 106.385ZM447.037 107.335C446.262 107.335 445.704 107.558 445.362 108.005C445.021 108.447 444.85 109.194 444.85 110.247C444.85 111.3 445.025 112.054 445.376 112.51C445.727 112.961 446.29 113.187 447.064 113.187C447.762 113.187 448.281 112.934 448.623 112.428C448.965 111.917 449.136 111.186 449.136 110.233C449.136 109.258 448.965 108.531 448.623 108.053C448.281 107.574 447.753 107.335 447.037 107.335ZM455.716 114.137C454.608 114.137 453.733 113.799 453.091 113.125C452.453 112.451 452.134 111.514 452.134 110.315C452.134 109.108 452.43 108.148 453.022 107.438C453.619 106.727 454.419 106.371 455.422 106.371C456.361 106.371 457.104 106.681 457.65 107.301C458.197 107.916 458.471 108.729 458.471 109.741V110.459H453.31C453.332 111.339 453.553 112.006 453.973 112.462C454.396 112.918 454.991 113.146 455.757 113.146C456.563 113.146 457.361 112.977 458.149 112.64V113.651C457.748 113.825 457.368 113.948 457.008 114.021C456.652 114.098 456.222 114.137 455.716 114.137ZM455.408 107.321C454.807 107.321 454.326 107.517 453.966 107.909C453.61 108.301 453.401 108.843 453.337 109.536H457.254C457.254 108.821 457.094 108.274 456.775 107.896C456.456 107.513 456.001 107.321 455.408 107.321ZM461.797 114H460.662V103.363H461.797V114Z" fill="#252A2E"/>
<rect width="64" height="32" rx="16" transform="matrix(1 0 0 -1 471 125)" fill="#90939F"/>
<path d="M496.333 109C496.333 114.155 492.154 118.333 486.999 118.333C481.845 118.333 477.666 114.155 477.666 109C477.666 103.845 481.845 99.6666 486.999 99.6666C492.154 99.6666 496.333 103.845 496.333 109Z" fill="white"/>
<rect width="64" height="32" rx="16" transform="matrix(1 0 0 -1 421 175)" fill="#217CBB"/>
<path d="M482.218 159.014C482.341 166.193 476.621 172.107 469.442 172.224C462.263 172.341 456.344 166.616 456.222 159.438C456.099 152.259 461.82 146.345 468.998 146.228C476.177 146.111 482.096 151.836 482.218 159.014Z" fill="white"/>
<path d="M495.319 164V154.006H496.481V162.947H500.891V164H495.319ZM507.279 164L507.054 162.934H506.999C506.625 163.403 506.252 163.722 505.878 163.891C505.509 164.055 505.046 164.137 504.49 164.137C503.747 164.137 503.164 163.945 502.74 163.562C502.321 163.18 502.111 162.635 502.111 161.929C502.111 160.416 503.321 159.623 505.741 159.55L507.013 159.509V159.044C507.013 158.456 506.885 158.023 506.63 157.745C506.379 157.463 505.976 157.321 505.42 157.321C504.796 157.321 504.089 157.513 503.301 157.896L502.952 157.027C503.321 156.827 503.725 156.67 504.162 156.556C504.604 156.442 505.046 156.385 505.488 156.385C506.382 156.385 507.042 156.583 507.471 156.979C507.904 157.376 508.12 158.012 508.12 158.887V164H507.279ZM504.716 163.2C505.422 163.2 505.976 163.007 506.377 162.619C506.783 162.232 506.985 161.689 506.985 160.992V160.315L505.851 160.363C504.948 160.395 504.297 160.536 503.896 160.787C503.499 161.033 503.301 161.418 503.301 161.942C503.301 162.353 503.424 162.665 503.67 162.879C503.921 163.093 504.269 163.2 504.716 163.2ZM514.201 156.385C515.186 156.385 515.949 156.722 516.491 157.396C517.038 158.066 517.312 159.017 517.312 160.247C517.312 161.478 517.036 162.435 516.484 163.118C515.938 163.797 515.176 164.137 514.201 164.137C513.714 164.137 513.267 164.048 512.861 163.87C512.46 163.688 512.123 163.41 511.85 163.036H511.768L511.528 164H510.715V153.363H511.85V155.947C511.85 156.526 511.831 157.046 511.795 157.506H511.85C512.378 156.758 513.162 156.385 514.201 156.385ZM514.037 157.335C513.262 157.335 512.704 157.558 512.362 158.005C512.021 158.447 511.85 159.194 511.85 160.247C511.85 161.3 512.025 162.054 512.376 162.51C512.727 162.961 513.29 163.187 514.064 163.187C514.762 163.187 515.281 162.934 515.623 162.428C515.965 161.917 516.136 161.186 516.136 160.233C516.136 159.258 515.965 158.531 515.623 158.053C515.281 157.574 514.753 157.335 514.037 157.335ZM522.716 164.137C521.608 164.137 520.733 163.799 520.091 163.125C519.453 162.451 519.134 161.514 519.134 160.315C519.134 159.108 519.43 158.148 520.022 157.438C520.619 156.727 521.419 156.371 522.422 156.371C523.361 156.371 524.104 156.681 524.65 157.301C525.197 157.916 525.471 158.729 525.471 159.741V160.459H520.31C520.332 161.339 520.553 162.006 520.973 162.462C521.396 162.918 521.991 163.146 522.757 163.146C523.563 163.146 524.361 162.977 525.149 162.64V163.651C524.748 163.825 524.368 163.948 524.008 164.021C523.652 164.098 523.222 164.137 522.716 164.137ZM522.408 157.321C521.807 157.321 521.326 157.517 520.966 157.909C520.61 158.301 520.401 158.843 520.337 159.536H524.254C524.254 158.821 524.094 158.274 523.775 157.896C523.456 157.513 523.001 157.321 522.408 157.321ZM528.797 164H527.662V153.363H528.797V164Z" fill="#252A2E"/>
</svg>
